X:103
M:2/2
L:1/4
K:Ab
(E F) | A2 F A | E2 A B | c2 B c | E2 E2 | A2 F A | E2 A B | c2 B B | A2 c2 | e2 c e | A2 A B | c2 B c | E2 E2 | !sintro!A2 F A | E2 A B | c2 B B | A2 !eintro!|]
